X: 17117
T: Heights Of Muingvuara, The
R: reel
M: 4/4
K: Gmajor
G=F|:DE=FD G2 DC|B,G,B,C DEFD|DGGB dBcA|GFDE =FD C2|
DE=FD G2 DC|B,G,B,C DEFD|~G3B AGFA|1 DGGF G2 G=F:|2 DGG^F GABd||
|:g ~B3 GBdg|bgag edef|gBBA B2 BA|GBdB A2 B/c/d|
g ~B3 GBdg|bgag e^def|g ~d3 ^cdBG|1 FGAF GABd:|2 FGAF G2||

